X:7
T:castle kelly
R:reel
D:Eileen Ivers-John Whelan
M:C|
K:ADOR
A2cA ~A2cA|G2EG ~G2EG|A2cA GAcd|ecdB cAAG|
A2cA ~A2cA|G2EG ~G2EG|A2cA GAcd|ecdB cA~A2:|
|:agec d2ed|cAGE ~G3a|agec d2cd|eaag ~a3f|
gedc d2ed|cAGE G2EG|A2cA GAcd|1 ecdB cA~A2:|2 ecdB cAAG||
A2cA ABcA|GE (3EEE G2EG|ABcA GAcd|ecdB cdBc|
A2cA ABcA|GE (3EEE G2EG|ABcA GAcd|1gedB cdBc:|2e2dB cA (3AAA|
agec c-ded|cAGE G4|agec d2cd|eaa^g a2ba|
gedc d=fed|cAGE G2EG|ABcB GAcd|1ecdB cA (3AAA:|2(3e=fe dB cdBc|
ABcA ABcA|1GABc dcBc|ABcA ABcd|ecdB cdBc:|2GcBc GcBG|ABcB Gcce|
gedB cdBc|:A2AA zBcB|G2A^A B=AGE|ABcB ABce|z2ezz2d:|
G2cB BAGE|ABcB ABce|gedB cAAa|:agec dzed|cAGE G3z|agec d2cd|
eaa^g a2ba|gedc d=fed|cAAE G2EG|ABcB GAcd|1ecdB cAAa:|2(3e=fe dB cdBc|
